rospo-dark/16x16/actions/go-parent-folder.svg

<svg height="16" viewBox="0 0 16 16" width="16" xmlns="http://www.w3.org/2000/svg"><path d="m1.84375 1.0097656c-.2813.0468-.84375.25-.84375 1v11.0000004s0 1 1 1h8.671875v-1.681641c-.398.316-.969025.282828-1.328125-.076172l-.7070312-.707031c-.3903-.391-.3903-1.024063 0-1.414063l.9492187-.9492184 1.8789065-1.8789062c.184-.1842.433359-.2893688.693359-.2929688.27-.0036.529703.1020688.720703.2929688l1.878906 1.8789062.242188.2421875v-5.4140625c0-1-1-1-1-1h-5l-2-2h-5s-.06255-.01562997-.15625 0zm10.328125 7-1.878906 1.8789063-.949219.9492191.707031.707031.949219-.949219.671875-.6718749v4.0859379h1v-4.0859379l.671875.6718749.949219.949219.707031-.707031-.949219-.9492191z" fill="#d3dae3"/></svg>

<?xml version="1.0" encoding="UTF-8" standalone="no"?>
<svg xmlns="http://www.w3.org/2000/svg" width="22" height="22" viewBox="0 0 22 22">
 <defs>
  <style type="text/css" id="current-color-scheme">
   .ColorScheme-Text { color:#d3dae3; } .ColorScheme-Highlight { color:#5294e2; }
  </style>
 </defs>
 <path style="fill:currentColor;opacity:1" class="ColorScheme-Text" transform="translate(3 3)" d="M 1.84375 1.0097656 C 1.56245 1.0565656 1 1.2597656 1 2.0097656 L 1 13.009766 C 1 13.009766 1 14.009766 2 14.009766 L 10.671875 14.009766 L 10.671875 12.328125 C 10.273875 12.644125 9.70285 12.610953 9.34375 12.251953 L 8.6367188 11.544922 C 8.2464188 11.153922 8.2464188 10.520859 8.6367188 10.130859 L 9.5859375 9.1816406 L 11.464844 7.3027344 C 11.648844 7.1185344 11.898203 7.0133656 12.158203 7.0097656 C 12.428203 7.0061656 12.687906 7.1118344 12.878906 7.3027344 L 14.757812 9.1816406 L 15 9.4238281 L 15 4.0097656 C 15 3.0097656 14 3.0097656 14 3.0097656 L 9 3.0097656 L 7 1.0097656 L 2 1.0097656 C 2 1.0097656 1.93745 0.99413563 1.84375 1.0097656 z M 12.171875 8.0097656 L 10.292969 9.8886719 L 9.34375 10.837891 L 10.050781 11.544922 L 11 10.595703 L 11.671875 9.9238281 L 11.671875 14.009766 L 12.671875 14.009766 L 12.671875 9.9238281 L 13.34375 10.595703 L 14.292969 11.544922 L 15 10.837891 L 14.050781 9.8886719 L 12.171875 8.0097656 z"/>
</svg>
